icons/Logos/apple-line.svg

<svg viewBox="0 0 24 24" xmlns="http://www.w3.org/2000/svg"><path d="M15.778 8.20805C15.3053 8.17122 14.7974 8.28446 14.0197 8.58079C14.085 8.55589 13.2775 8.87185 13.0511 8.95089C12.5494 9.12605 12.1364 9.2221 11.6734 9.2221C11.2151 9.2221 10.7925 9.13054 10.3078 8.96695C10.1524 8.91453 9.99616 8.85652 9.80283 8.78102C9.71993 8.74864 9.41997 8.62959 9.3544 8.60391C8.70626 8.35008 8.34154 8.25446 8.03885 8.26194C6.88626 8.27662 5.79557 8.94222 5.16246 10.0443C3.87037 12.2876 4.58583 16.3429 6.47459 19.0751C7.4802 20.5191 8.03062 21.0351 8.25199 21.028C8.4743 21.0184 8.63777 20.9714 9.03567 20.8027C9.11485 20.769 9.11485 20.769 9.202 20.7318C10.2077 20.3033 10.9118 20.1141 11.9734 20.1141C12.9944 20.1141 13.6763 20.2999 14.6416 20.716C14.7302 20.7543 14.7302 20.7543 14.8097 20.7885C15.2074 20.9589 15.3509 20.9963 15.6016 20.9903C15.9591 20.9847 16.4003 20.5727 17.3791 19.1363C17.6471 18.7448 17.884 18.3334 18.0895 17.9169C17.9573 17.8078 17.826 17.6918 17.6975 17.5694C16.4086 16.3409 15.6114 14.6846 15.5895 12.6392C15.5756 11.0188 16.1057 9.61499 16.999 8.4581C16.6293 8.31432 16.2216 8.23817 15.778 8.20805ZM15.9334 6.2141C16.6414 6.2621 18.6694 6.4781 19.9894 8.4101C19.8814 8.4701 17.5654 9.8141 17.5894 12.6221C17.6254 15.9821 20.5294 17.0981 20.5654 17.1101C20.5414 17.1941 20.0974 18.7061 19.0294 20.2661C18.1054 21.6221 17.1454 22.9661 15.6334 22.9901C14.1454 23.0261 13.6654 22.1141 11.9734 22.1141C10.2694 22.1141 9.74138 22.9661 8.33738 23.0261C6.87338 23.0741 5.76938 21.5621 4.83338 20.2181C2.92538 17.4581 1.47338 12.4421 3.42938 9.0461C4.40138 7.3541 6.12938 6.2861 8.01338 6.2621C9.44138 6.2261 10.7974 7.2221 11.6734 7.2221C12.5374 7.2221 14.0854 6.0701 15.9334 6.2141ZM14.7934 4.3901C14.0134 5.3261 12.7414 6.0581 11.5054 5.9621C11.3374 4.6901 11.9614 3.3581 12.6814 2.5301C13.4854 1.5941 14.8294 0.898098 15.9454 0.850098C16.0894 2.1461 15.5734 3.4541 14.7934 4.3901Z"/></svg>

<svg xmlns="http://www.w3.org/2000/svg" viewBox="0 0 24 24">
    <g>
        <path fill="none" d="M0 0h24v24H0z"/>
        <path fill-rule="nonzero" d="M15.729 8.208c-.473-.037-.981.076-1.759.373.066-.025-.742.29-.968.37-.502.175-.915.271-1.378.271-.458 0-.88-.092-1.366-.255-.155-.053-.311-.11-.505-.186-.082-.032-.382-.152-.448-.177-.648-.254-1.013-.35-1.316-.342-1.152.015-2.243.68-2.876 1.782-1.292 2.244-.577 6.299 1.312 9.031 1.006 1.444 1.556 1.96 1.778 1.953.222-.01.385-.057.783-.225l.167-.071c1.005-.429 1.71-.618 2.771-.618 1.021 0 1.703.186 2.668.602l.168.072c.398.17.542.208.792.202.358-.005.799-.417 1.778-1.854.268-.391.505-.803.71-1.22a7.354 7.354 0 0 1-.392-.347c-1.289-1.228-2.086-2.884-2.108-4.93a6.625 6.625 0 0 1 1.41-4.181 4.124 4.124 0 0 0-1.221-.25zm.155-1.994c.708.048 2.736.264 4.056 2.196-.108.06-2.424 1.404-2.4 4.212.036 3.36 2.94 4.476 2.976 4.488-.024.084-.468 1.596-1.536 3.156-.924 1.356-1.884 2.7-3.396 2.724-1.488.036-1.968-.876-3.66-.876-1.704 0-2.232.852-3.636.912-1.464.048-2.568-1.464-3.504-2.808-1.908-2.76-3.36-7.776-1.404-11.172.972-1.692 2.7-2.76 4.584-2.784 1.428-.036 2.784.96 3.66.96.864 0 2.412-1.152 4.26-1.008zm-1.14-1.824c-.78.936-2.052 1.668-3.288 1.572-.168-1.272.456-2.604 1.176-3.432.804-.936 2.148-1.632 3.264-1.68.144 1.296-.372 2.604-1.152 3.54z"/>
    </g>
</svg>
